img/vector/chars/Vector-S.svg

<svg width="104" height="110" viewBox="0 0 104 110" fill="none" xmlns="http://www.w3.org/2000/svg">
<path d="M1.17244 82.6841H61.9836C64.5899 82.6841 66.2601 82.3204 66.9876 81.5928C67.7196 80.8609 68.0878 80.0757 68.0878 79.2416C68.0878 77.4694 67.3558 76.2406 65.8963 75.5596C64.4346 74.8809 62.8154 74.2798 61.0432 73.7585L18.5711 61.8429C15.3283 61.0112 12.7132 59.7823 10.728 58.1609C8.745 56.5417 7.18125 55.0001 6.03449 53.5384C3.41936 50.0915 1.77132 46.1721 1.09259 41.7825C0.411633 37.3951 0.0722656 33.163 0.0722656 29.0862C0.0722656 25.6392 0.411633 21.9306 1.09259 17.9602C1.77132 13.9921 3.7299 10.3877 6.96609 7.1448C8.745 5.37255 11.1494 3.77996 14.1793 2.37147C17.207 0.958548 21.0732 0.250977 25.7755 0.250977H98.1829V27.5246H42.3934C40.2996 27.5246 38.8844 27.5801 38.1525 27.6843C37.4249 27.7864 36.9037 27.9394 36.5909 28.1457C35.4419 28.7734 34.8697 29.7671 34.8697 31.1268C34.8697 32.9013 35.8856 34.21 37.9218 35.0484C39.9602 35.8824 42.0252 36.5611 44.1147 37.0802L81.1036 46.9551C83.5035 47.5828 86.1386 48.5233 89.0089 49.7765C91.8813 51.032 94.3145 52.6534 96.3019 54.6386C97.9744 56.3066 99.3318 58.2119 100.374 60.3524C101.419 62.4951 102.178 64.6888 102.646 66.9357C103.118 69.1848 103.431 71.4051 103.586 73.5988C103.744 75.7947 103.826 77.8332 103.826 79.7119C103.826 82.9481 103.562 86.5547 103.036 90.5273C102.515 94.4977 101 98.1531 98.4934 101.494C96.9252 103.583 95.2528 105.204 93.4805 106.356C91.706 107.505 89.8495 108.341 87.9175 108.866C85.9834 109.388 84.047 109.703 82.115 109.807C80.1853 109.909 78.2799 109.958 76.4012 109.958H1.17244V82.6841Z" />
</svg>

<svg width="104" height="110" viewBox="0 0 104 110" fill="none" xmlns="http://www.w3.org/2000/svg"><path d="M1.172 82.684h60.812c2.606 0 4.276-.364 5.004-1.091.732-.732 1.1-1.517 1.1-2.351 0-1.773-.732-3.001-2.192-3.682a34.953 34.953 0 0 0-4.853-1.801L18.571 61.841c-3.242-.832-5.857-2.06-7.842-3.682C8.745 56.543 7.18 55 6.034 53.539c-2.615-3.446-4.263-7.366-4.941-11.755-.681-4.388-1.02-8.62-1.02-12.697 0-3.447.339-7.155 1.02-11.126.678-3.968 2.637-7.572 5.873-10.815C8.746 5.373 11.15 3.78 14.18 2.37 17.206.96 21.072.251 25.774.251h72.408v27.275h-55.79c-2.093 0-3.509.055-4.24.16-.728.101-1.25.254-1.562.46-1.148.628-1.72 1.622-1.72 2.982 0 1.774 1.016 3.083 3.052 3.921a44.99 44.99 0 0 0 6.193 2.032l36.989 9.875c2.4.628 5.035 1.568 7.905 2.821 2.871 1.256 5.304 2.877 7.292 4.863a20.985 20.985 0 0 1 4.072 5.712 28.008 28.008 0 0 1 2.272 6.584c.472 2.249.785 4.47.94 6.663.158 2.195.24 4.233.24 6.112 0 3.236-.264 6.843-.79 10.815-.52 3.97-2.036 7.626-4.543 10.967-1.568 2.09-3.24 3.71-5.012 4.862-1.774 1.15-3.63 1.985-5.562 2.51-1.935.522-3.87.837-5.803.94-1.93.103-3.835.152-5.714.152H1.173V82.684z"/></svg>
